X:1
T:Title
%%score { ( 1 3 ) | ( 2 4 ) }
L:1/8
M:6/4
K:D
V:1 treble nm="Grand Piano"
V:3 treble 
V:2 bass 
V:4 bass 
V:1
 z6 z4[Q:1/4=138] [FA][FA] | [Fd]4 [Fd]2 [Gc]4 [GB]2 | [FA]6 [FA]6 | F4 E2 D4 F2 | %4
 [DFA]4 [CGA]2 [DFA]6 | [DGB]4 [DGB]2 [Bd]2 c2 B2 | [FA]4 [FA]2 [FA]2 G2 F2 | E4 A2 c4 A2 | %8
 ^G2 A2 B2 z4 =G2 | [Fd]4 [Fd]2 [Fd]2 c2 [GB]2 | [FA]4 [FA]2 [FA]2 G2 [A,DF]2 | %11
 [CEA]4 [CE]2 [CE]2 [DF]2 [EG]2 | F4 B2 A6 | B4 B2 B2 c2 d2 | c4 c2 c2 d2 e2 | d4 d2 d4 G2 | %16
 F4 [CE]2 D6 | [Fd]4 [Fd]2 d2 c2 [FB]2 | [Gc]4 [Gc]2 [EGc]4 [CEG]2 | [EGc]4 [CGB]2 [DFA]4 [A,EG]2 | %20
 F4 B2 A6 | B4 B2 B2 c2 d2 | c4 c2 c2 d2 e2 | d4 d2 d4 G2 |[M:10/4] F4 [CE]2 D6 z8 |] %25
V:2
 z6 z4 [D,D][D,D] | [D,A,]4 [D,A,]2 [D,B,]4 [D,C]2 | [D,D]6 [D,D]6 | %3
 [D,A,D]4 [D,G,D]2 [D,F,]4 [D,A,D]2 | D,4 A,,2 D,6 | G,4 G,2 z2[K:treble] A2 [G,DG]2 | %6
 [D,D]4 [D,D]2 z2 E2 [D,A,D]2 | [E,A,C]4 [E,A,C]2 [E,A,E]4 [E,A,C]2 | %8
 [B,D]2 [A,C]2 [E,^G,D]2 .[A,C]6 | [D,A,]4 [D,A,]2 A,2 [B,G]2 [D,C]2 | [D,D]4 [D,D]2 z2 E2 D,2 | %11
 A,,4 [A,,A,]2 [A,,A,]4 [A,,A,]2 | [D,A,D]4 [D,G,D]2 [D,F,D]6 | %13
 [G,D]4 [G,D]2 [E,E]2- [E,A,E]2 [E,B,E]2 | [A,E]4 [A,E]2 [F,F]2- [F,B,F]2 [F,CF]2 | %15
 [B,F]4 [A,=CF]2 [G,B,G]4[K:bass] [G,B,D]2 | [A,D]4 [A,,G,]2 [D,F,]6 | %17
 [D,A,]4 [D,A,]2 [D,A,]4 [D,A,]2 | [E,A,]4 [E,A,]2 A,4 A,2 | A,,4 A,,2 A,,4 A,,2 | %20
 [D,A,D]4 [D,G,D]2 [D,F,D]6 | [G,D]4 [G,D]2 ^G,2 A,2 [E,B,E]2 | %22
 [A,E]4 [A,E]2 [F,F]2- [F,B,F]2 [F,CF]2 | [B,F]4 [A,=CF]2 [G,B,G]4[K:bass] [G,B,D]2 | %24
[M:10/4] [A,D]4 [A,,G,]2 [D,F,]6 z8 |] %25
V:3
 x12 | x12 | x12 | x12 | x12 | z6 .D6 | x12 | x12 | z6 A6 | x12 | x12 | x12 | x12 | x12 | x12 | %15
 x12 | x12 | z6 .F6 | x12 | x12 | x12 | x12 | x12 | x12 |[M:10/4] x20 |] %25
V:4
 x12 | x12 | x12 | x12 | x12 | z6 .G,6[K:treble] | z6 .[D,D]6 | x12 | .E,6 z6 | z6 .D,6 | %10
 z6 .[D,D]6 | x12 | x12 | z6 .^G,6 | z6 .^A,6 | x10[K:bass] x2 | x12 | x12 | x12 | x12 | x12 | %21
 z6 .[E,E]6 | z6 .^A,6 | x10[K:bass] x2 |[M:10/4] x20 |] %25

